X:250
T:Duncan Henderson of Newton 
C:Joe Buchanan's Scottish Tome - Page 303.0
I:303 0
C:Fergie MacDonald
R:Jig
Z:Carl Allison
L:1/8
M:6/8
K:C
"E7"e |:"Am"AAA BGG | AAA a3 | "G" g2 a gee | d2 d "E7"BGG |
"Am"AAA BGG | AAA a3 | "G"g2 a gee | "D"^fdd "Am"a3 :|
"Am"aee a3 | "D"d^ff "Am"e3 | "G"g2 a gee | d2 c "E7"BGG ||
"Am"aee a3 | "D"d^ff "Am"e3 | "G"g2 a gee | "D"^fdd a3 ||
"Am"aee a3 | "D"d^ff "Am"e3 | "G"g2 a gee | d2 c "E7"BGG ||
"Am"AAA BGG | AAA a3 | "G"g2 a gee | "D"^fdd "Am"a3 |
"Am"AAA e3 | gag e3 | "G"g2 a gee | "G"d2 c BGG |
"Am"AAA e3 | gag e3 | "G"g2 a gee | "D"^fdd "Am"a3 :|
"Am"AAA aAA | gaa gee | "G"gaa gee | "G"d2 c BGG |
"Am"AAA aAA | gaa gee | "G"gaa gee | "D"^fdd "Am"a3 |
"Am"AAA aAA | gaa gee | "G"gaa gee | "G"d2 c BGG |
"Am"AAA BGG | AAA a3 | "G"g2 a gee | "D"^fdd "Am"a3 |]

